X: 21205
T: Katlar's
R: reel
M: 4/4
K: Cmajor
|:e/g/e ce dcAG|EGGE GAcd|e/g/e ce dcAG|A2 AG ABcd|
e/g/e c/d/e dcAG|EGGE GAcd|e/g/e ce dcAG|AccB c2 cd:|
|:e/g/e ce dcAc|e/g/e ce dcAG|EAAG ABAG|EAAG ABcd|
e/g/e ce dcAc|e/g/e ce dcAG|EGGE GAcd|1 ecdB c2 cd:|2 ecdB c2||

